X:3090
T:Kong Gambrinus
T:Norsk brygger-vise (Rheinlied)
C:Johs. Peters, words: anon.
O:Norway / Germany
R:Drinking song
F:http://abc.musicaviva.com/tunes/peters-johs/peters-kong-gambrinus.abc
M:9/8
L:1/8
K:G
D2D|"G"G3-G2G"C"G2G|"G"G3D3B,2C|"G"D3-D2B,"D"A,2C|"G"B,3z2z"B7"B,2B,|
w:Kong Gam-bri--nus var den f\or-ste, som v\aar bru--ne nek-tar fant, for \aa
"Em"G3-G2GG2F|"Em"F3E3F2G|"D"A3-A2F"A7"F2E|"D"D3z2z"D7"D2D|
w:gle--de gu-der t\or-ste malt og hum--le sam-men-bandt. Sjen-ket
"G"G3-G2GG2G|"C"G3E2zE2E|"A"A3-A2AA2E|"D"F3z2z"D7"D2D|
w:s\aa_ i ful-le sk\aa-ler drik-ken for_ hver t\ors-tig sjel, gyl-den-
"G"B3-B2B"D"B2B|"Am"B3A3"C"G2E|"G"D3-D2^D ({F}"D7"E2)C|"G"B,3z2zD2D|
w:brun_ og klar den str\aa-ler, styr-kens fris--ke * kil-de-veld. Gyl-den-
"G"B3-B2B"E7"B2B|"Am"d3c3"C"E2_E|"G"D3-D2G({F}"D7"HA2)G|"G"G6|]
w:brun_ og klar den str\aa-ler, styr-kens fris--ke * kil-de-veld.
W:
W:Kong Gambrinus var den f\orste,
W:som v\aar brune nektar fant,
W:for \aa glede gu-der t\orste
W:malt og humle sammenbandt.
W:Sjenket s\aa i fulle sk\aaler
W:drikken for hver t\orstig sjel,
W:gyldenbrun og klar den str\aaler,
W:styrkens friske kildeveld.
W:
W:\Olet, Nordens gudegave,
W:bruser lett som heltens blod,
W:skummets fine perlekrave
W:gir den rang og fyrrigt mot.
W:\Olet skal fra kongeborgen
W:ut til fjell og skj\aerg\aard n\aa
W:tenne gleden, sl\ore sorgen,
W:hjerterom hos folket f\aa.
W:
W:
W:  From Musica Viva - http://www.musicaviva.com
W:  the Internet center for free sheet music downloads.
